X:71
T:Petite camuson
R:Chanson
O:France
A:Champagne
B:Le livre des Chansons (Henri Davenson) n°71
Z:<anamnese@caramail.com> -- http://anamnese.fr.st
M:2/4
L:1/8
Q:1/4=110
K:Bb
G | G d d c | d2 d G | G d d c | d3 d | d e f e | c2 B c |
d c B A | G2 B/ B/ B | A/ A/ A d/ G/ d | d c/B/ A z | [M:3/4] c2 G B A F | G4 z2 ||
W:Lorsque j'étais petite, petite camuson*,       [*->fillette]
W:J'allais à la fontaine pour ramasser des joncs.
W:   Foutana, Inqu'en ira Dzôli dzaï, Bé maouré, Où qu'allez-vous madé ?
W:
W:Au bord de la fontaine, mon pied il a glissé,
W:Et j'étais trop jeunette : au fond je suis tombée.

